img/advantage/dollar-symbol.svg

<svg width="48" height="48" viewBox="0 0 48 48" fill="none" xmlns="http://www.w3.org/2000/svg">
<g clip-path="url(#clip0)">
<path d="M24 47.9999C37.2341 47.9999 48 37.234 48 23.9999C48.0058 20.8256 47.3782 17.6821 46.1531 14.7536C46.0244 14.4379 45.7357 14.2149 45.3978 14.171C45.0593 14.1265 44.723 14.2668 44.5169 14.5386C44.3114 14.8108 44.2669 15.1726 44.4015 15.4861C45.5297 18.1826 46.1075 21.0772 46.1017 23.9999C46.1017 36.1869 36.187 46.1016 24 46.1016C11.813 46.1016 1.8983 36.1869 1.8983 23.9999C1.8983 11.8129 11.813 1.8982 24 1.8982C26.4767 1.89502 28.9364 2.30922 31.2754 3.12384C31.5959 3.23771 31.9534 3.17098 32.2113 2.94905C32.4693 2.72765 32.589 2.38443 32.5249 2.05021C32.4608 1.716 32.2225 1.44163 31.9004 1.33146C29.3602 0.446928 26.6896 -0.00328333 24 -0.000105363C10.7659 -0.000105363 0 10.7658 0 23.9999C0 37.234 10.7659 47.9999 24 47.9999Z" fill="#156963"/>
<path d="M33.4094 6.17269C33.0387 5.80193 32.4375 5.80193 32.0667 6.17269C31.6965 6.54345 31.6965 7.14462 32.0667 7.51538L36.4836 11.9322C36.8485 12.2972 37.4375 12.3035 37.8104 11.9471L45.5969 4.51009C45.8459 4.2765 45.9502 3.92746 45.8708 3.59589C45.7908 3.26432 45.5392 3.00055 45.2113 2.90574C44.884 2.81093 44.5307 2.89939 44.286 3.1372L37.17 9.93381L33.4094 6.17269Z" fill="#156963"/>
<path d="M24 14.8194C26.2405 14.822 28.0562 16.6377 28.0588 18.8782C28.0588 19.4025 28.4836 19.8273 29.008 19.8273C29.5323 19.8273 29.9571 19.4025 29.9571 18.8782C29.9534 15.956 27.8332 13.4666 24.9492 12.9974V11.1186C24.9492 10.5943 24.5244 10.1695 24 10.1695C23.4756 10.1695 23.0509 10.5943 23.0509 11.1186V12.9974C19.9862 13.4936 17.8162 16.2595 18.0646 19.3543C18.3125 22.4486 20.8957 24.8337 24 24.8347C26.232 24.8347 28.0456 26.6372 28.0583 28.8697C28.0715 31.1017 26.2791 32.9253 24.0472 32.9513C24.0313 32.9502 24.0159 32.9486 24 32.9486C23.9841 32.9486 23.9688 32.9502 23.9529 32.9513C21.7309 32.9232 19.9439 31.1155 19.9412 28.8935C19.9412 28.3692 19.5164 27.9444 18.9921 27.9444C18.4677 27.9444 18.0429 28.3692 18.0429 28.8935C18.0466 31.8157 20.1663 34.3051 23.0509 34.7744V36.8814C23.0509 37.4057 23.4756 37.8305 24 37.8305C24.5244 37.8305 24.9492 37.4057 24.9492 36.8814V34.7744C28.0143 34.2797 30.1854 31.5127 29.937 28.4179C29.6891 25.3231 27.1049 22.9375 24 22.9375C22.5445 22.9454 21.1955 22.1737 20.4656 20.9147C19.7352 19.6552 19.7352 18.1017 20.4656 16.8422C21.1955 15.5832 22.5445 14.8114 24 14.8199V14.8194Z" fill="#156963"/>
</g>
<defs>
<clipPath id="clip0">
<rect width="48" height="48" fill="white"/>
</clipPath>
</defs>
</svg>

<svg width="48" height="48" viewBox="0 0 48 48" fill="none" xmlns="http://www.w3.org/2000/svg"><g clip-path="url(#clip0)" fill="#156963"><path d="M24 48c13.234 0 24-10.766 24-24a23.845 23.845 0 00-1.847-9.246.949.949 0 10-1.752.732 21.945 21.945 0 011.7 8.514c0 12.187-9.914 22.102-22.101 22.102S1.898 36.187 1.898 24C1.898 11.813 11.813 1.898 24 1.898a22.035 22.035 0 017.275 1.226.949.949 0 10.625-1.793A23.938 23.938 0 0024 0C10.766 0 0 10.766 0 24s10.766 24 24 24z"/><path d="M33.41 6.173a.95.95 0 00-1.343 1.342l4.417 4.417a.949.949 0 001.326.015l7.787-7.437a.95.95 0 10-1.311-1.373L37.17 9.934l-3.76-3.761zM24 14.82a4.064 4.064 0 014.059 4.058.949.949 0 101.898 0 5.966 5.966 0 00-5.008-5.88v-1.88a.949.949 0 10-1.898 0v1.88A5.957 5.957 0 0024 24.834a4.058 4.058 0 01.047 8.116H24l-.047.002a4.063 4.063 0 01-4.012-4.058.949.949 0 10-1.898 0 5.966 5.966 0 005.008 5.881v2.107a.949.949 0 101.898 0v-2.107A5.956 5.956 0 0024 22.937a4.06 4.06 0 110-8.117z"/></g><defs><clipPath id="clip0"><path fill="#fff" d="M0 0h48v48H0z"/></clipPath></defs></svg>
